svgs/duotone/circle-heart.svg

<svg xmlns="http://www.w3.org/2000/svg" viewBox="0 0 512 512"><!--! Font Awesome Pro 6.4.0 by @fontawesome - https://fontawesome.com License - https://fontawesome.com/license (Commercial License) Copyright 2023 Fonticons, Inc. --><defs><style>.fa-secondary{opacity:.4}</style></defs><path class="fa-primary" d="M131.9 172.9c-29.4 29.8-29.4 78.2 0 108L233.5 384.1c6.2 6.3 14.3 9.4 22.5 9.4s16.3-3.1 22.5-9.4L380.1 280.9c29.4-29.8 29.4-78.2 0-108s-77-29.8-106.4 0l-17.7 18-17.7-18c-29.4-29.8-77-29.8-106.4 0z"/><path class="fa-secondary" d="M256 512A256 256 0 1 0 256 0a256 256 0 1 0 0 512zM131.9 280.9c-29.4-29.8-29.4-78.2 0-108s77-29.8 106.4 0l17.7 18 17.7-18c29.4-29.8 77-29.8 106.4 0s29.4 78.2 0 108L278.5 384.1c-6.2 6.3-14.3 9.4-22.5 9.4s-16.3-3.1-22.5-9.4L131.9 280.9z"/></svg>

<svg xmlns="http://www.w3.org/2000/svg" viewBox="0 0 512 512"><!--! Font Awesome Pro 6.3.0 by @fontawesome - https://fontawesome.com License - https://fontawesome.com/license (Commercial License) Copyright 2023 Fonticons, Inc. --><defs><style>.fa-secondary{opacity:.4}</style></defs><path class="fa-primary" d="M238.3 173L256 191L273.7 173C303.1 143.2 350.8 143.2 380.1 173C409.5 202.8 409.5 251.2 380.1 280.1L278.5 384.2C272.3 390.5 264.1 393.6 256 393.6C247.9 393.6 239.7 390.5 233.5 384.2L131.9 280.1C102.5 251.2 102.5 202.8 131.9 173C161.2 143.2 208.9 143.2 238.3 173H238.3z"/><path class="fa-secondary" d="M0 256C0 114.6 114.6 0 256 0C397.4 0 512 114.6 512 256C512 397.4 397.4 512 256 512C114.6 512 0 397.4 0 256zM233.5 384.2C239.7 390.5 247.9 393.6 256 393.6C264.1 393.6 272.3 390.5 278.5 384.2L380.1 280.1C409.5 251.2 409.5 202.8 380.1 173C350.8 143.2 303.1 143.2 273.7 173L256 191L238.3 173C208.9 143.2 161.2 143.2 131.9 173C102.5 202.8 102.5 251.2 131.9 280.1L233.5 384.2z"/></svg>
